!!!ONB: MCCC : IFC0054_01 : Extracted Monophonic Melody
!!!COM: Chopin, Frédéric
!!!OPR: Mazurkas
!!!OMV: 1
!!!SCT: Op.50
!!!ODT: 1841///
**kern
*thru
*staff1
*Ipiano
*clefG2
*k[b-e-a-]
*c:
*M3/4
*MM132
4g[
=1
8g]
8a-
4g
8cc
8dd
=2
8ee-
8dd
2cc
=3
8dd
8ee-
4ff
8ee-
8dd
=4
8dd
8ee-
2cc
=5
8d
8e-
4d
8g
8a
=6
8b-
8a
2g
=7
8a
8b-
4cc
8b-
8a
=8
2.g[
=9
8g]
8a-
8g
8b
8cc
8dd
=10
8ee-
8dd
2cc
=11
8dd
8ee-
4ff
8ee-
8dd
=12
8dd
8ee-
2cc
=13
8d
8e-
4d
8g
8a
=14
8b-
8a
2g
=15
8a
8b-
4cc
8b-
8a
=16
2g
8.g
16g
=17
8g
2a-
8g
=18
8.e
16f
4.dd
8cc
=19
8f
2g
8f
=20
8e-
8r
4.gg
8ff
=21
8.ee-
16cc
4b-
4cc
=22
8.b-
16a-
2g[
=23
8g]
8f
4e-
4f
=24
8d
8B
4G
8.g
16g
=25
8g
2a-
8g
=26
8.e
16f
4.dd
8cc
=27
8f
2g
8f
=28
8e-
8r
2ee-
=29
4dd
8.cc#
16dd
8.ee-
16dd
=30
4g
8.cc#
16dd
8.ee-
16dd
=31
4gg
8.cc#
16dd
8.ee-
16dd
=32
4g
8.cc#
16dd
8.ee-
16dd
=33
4gg
8.cc#
16dd
8.ee-
16dd
=34
2.g
=35
4gg
8.cc#
16dd
8.ee-
16dd
=36
2aa-
4gg
=37
8g
8a-
4g
8cc
8dd
=38
8ee-
8dd
2cc
=39
8dd
8ee-
4ff
8ee-
8dd
=40
8dd
8ee-
2cc
=41
8d
8e-
4d
8g
8a
=42
8b-
8a
2g
=43
8a
8b-
4cc
8b-
8a
=44
2.g[
=45
8g]
8a-
8g
8b
8cc
8dd
=46
8ee-
8dd
2cc
=47
8dd
8ee-
4ff
8ee-
8dd
=48
8dd
8ee-
2cc
=49
8dd
8ee-
4ff
8ee-
8dd
=50
8aa-
8dd
4ff
8ee-
8dd
=51
8aa-
8dd
4ff
8ee-
8dd
=52
8dd
8ee-
[2cc
=53
2.cc]
==
*-
